Images/Icons/Organized.svg

<?xml version="1.0" encoding="utf-8"?>
<!-- Generator: Adobe Illustrator 27.1.1, SVG Export Plug-In . SVG Version: 6.00 Build 0)  -->
<svg version="1.1" id="Слой_2" xmlns="http://www.w3.org/2000/svg" xmlns:xlink="http://www.w3.org/1999/xlink" x="0px" y="0px"
	 viewBox="0 0 100 100" style="enable-background:new 0 0 100 100;" xml:space="preserve">
<style type="text/css">
	.st0{fill:#121212;}
</style>
<path class="st0" d="M87.5,59H80V27.5c0-0.8-0.7-1.5-1.5-1.5H67V11.5c0-0.8-0.7-1.5-1.5-1.5h-31c-0.8,0-1.5,0.7-1.5,1.5V26H21.5
	c-0.8,0-1.5,0.7-1.5,1.5V59h-7.5c-0.8,0-1.5,0.7-1.5,1.5v19c0,0.8,0.7,1.5,1.5,1.5h19c0.8,0,1.5-0.7,1.5-1.5v-19
	c0-0.8-0.7-1.5-1.5-1.5H23V29h10v13.5c0,0.8,0.7,1.5,1.5,1.5H49v15h-8.5c-0.8,0-1.5,0.7-1.5,1.5v19c0,0.8,0.7,1.5,1.5,1.5h19
	c0.8,0,1.5-0.7,1.5-1.5v-19c0-0.8-0.7-1.5-1.5-1.5H52V44h13.5c0.8,0,1.5-0.7,1.5-1.5V29h10v30h-8.5c-0.8,0-1.5,0.7-1.5,1.5v19
	c0,0.8,0.7,1.5,1.5,1.5h19c0.8,0,1.5-0.7,1.5-1.5v-19C89,59.7,88.3,59,87.5,59z M30,78H14V62h16V78z M58,78H42V62h16V78z M64,41H36
	V13h28V41z M86,78H70V62h16V78z"/>
</svg>

<svg id="Слой_2" data-name="Слой 2" xmlns="http://www.w3.org/2000/svg" viewBox="0 0 100 100"><title>Монтажная область 18</title><path d="M87.5,59H80V27.5A1.5,1.5,0,0,0,78.5,26H67V11.5A1.5,1.5,0,0,0,65.5,10h-31A1.5,1.5,0,0,0,33,11.5V26H21.5A1.5,1.5,0,0,0,20,27.5V59H12.5A1.5,1.5,0,0,0,11,60.5v19A1.5,1.5,0,0,0,12.5,81h19A1.5,1.5,0,0,0,33,79.5v-19A1.5,1.5,0,0,0,31.5,59H23V29H33V42.5A1.5,1.5,0,0,0,34.5,44H49V59H40.5A1.5,1.5,0,0,0,39,60.5v19A1.5,1.5,0,0,0,40.5,81h19A1.5,1.5,0,0,0,61,79.5v-19A1.5,1.5,0,0,0,59.5,59H52V44H65.5A1.5,1.5,0,0,0,67,42.5V29H77V59H68.5A1.5,1.5,0,0,0,67,60.5v19A1.5,1.5,0,0,0,68.5,81h19A1.5,1.5,0,0,0,89,79.5v-19A1.5,1.5,0,0,0,87.5,59ZM30,78H14V62H30Zm28,0H42V62H58Zm6-37H36V13H64ZM86,78H70V62H86Z"/></svg>
